X:0950
T:"The End Of The Day"  (jig)     0950
C:after Sg't J. O'Neill
B:O'Neill's Music Of Ireland (The 1850) Lyon & Healy, Chicago, 1903 edition
Z:FROM O'NEILL'S TO NOTEWORTHY, FROM NOTEWORTHY TO ABC, MIDI AND .TXT BY VINCE
BRENNAN July 2003 (HTTP://WWW.SOSYOURMOM.COM)
I:abc2nwc
M:6/8
L:1/8
K:G
A|:B3/2A/2B G2D|G3/2A/2G GBd|cBA GFG|Ade dcA|
B3/2A/2B G2D|GAG GBd|gfe dcB|AFA cBA:|
|:B2d ded|dBd gdc|B2d ded|ece afd|
B2d ded|ded def|gfe dcB|AFA cBA:|
|:c|(d3/2e/2d/2c/2) dec|dBG GAB|(c3/2d/2c/2B/2) cdB|cAF FGA|
B3c3|dgg gab|^fge dec|BGG G2:|
